assets/sonr-icons/menu.svg

<svg xmlns="http://www.w3.org/2000/svg" width="24" height="24" fill="none" viewBox="0 0 24 24"><path fill="#000" d="M2 5C2 4.448 2.448 4 3 4H21C21.552 4 22 4.448 22 5C22 5.552 21.552 6 21 6H3C2.448 6 2 5.552 2 5ZM2 19C2 18.448 2.448 18 3 18H21C21.552 18 22 18.448 22 19C22 19.552 21.552 20 21 20H3C2.448 20 2 19.552 2 19ZM3 11C2.448 11 2 11.448 2 12C2 12.552 2.448 13 3 13H21C21.552 13 22 12.552 22 12C22 11.448 21.552 11 21 11H3Z"/></svg>

<svg xmlns="http://www.w3.org/2000/svg" width="24" height="24" fill="none"><path fill="currentColor" d="M2 5a1 1 0 0 1 1-1h18a1 1 0 0 1 0 2H3a1 1 0 0 1-1-1m0 14a1 1 0 0 1 1-1h18a1 1 0 0 1 0 2H3a1 1 0 0 1-1-1m1-8a1 1 0 0 0 0 2h18a1 1 0 0 0 0-2z"/></svg>
